X: 1
T: Chicken Dance  [C]
C: Werner Thomas (Swiss)
Z: John Chambers <jc@trillian.mit.edu> http://trillian.mit.edu/~jc/music/
M: 4/4
L: 1/8
K: C
"C"z2 |:\
!f!GG AA EE | "C"Gz !p!GG AA EE |\
Gz !f!GG AA cc | "G7"Bz !p!B2A2G2 |\
Fz !f!FF GG DD |
"G7"Fz !p!FF GG DD |\
[1 Fz !f!GG AA B2 | "C"Az !p!A2G2F2 | Ez :|\
[2 "G7"F2 G2A2B2 | "C"c6 z2 |]\
z G2_G2F2 | "C"E6 G2 |\
e6 d2 | d4 c4 |
z2 G2_G2F2 | E6 G2 |\
d6 c2 | "G7"B6 z2 |\
z2 G2G2_G2 | "G7"F6 G2 |\
d6 c2 | c4 B4 |\
z2 d2d2c2 | c4 B4 |\
z2 B2c2d2 | "C"c6 z2  |]
